build/system/OpenInFullSolid.svg

<svg xmlns="http://www.w3.org/2000/svg" fill="none" viewBox="0 0 24 24" focusable="false"><path d="M0 0H24V24H0z"/><path fill="#74767B" fill-rule="evenodd" d="M4 7C4 5.34315 5.34315 4 7 4L17 4C18.6569 4 20 5.34315 20 7L20 17C20 18.6569 18.6569 20 17 20L7 20C5.34315 20 4 18.6569 4 17L4 7ZM10.8031 17.3461C10.8031 17.7051 10.5121 17.9961 10.1531 17.9961L6.65257 17.9961C6.29359 17.9961 6.00257 17.7051 6.00257 17.3461L6.00257 13.8456C6.00257 13.4866 6.29359 13.1956 6.65257 13.1956C7.01156 13.1956 7.30257 13.4866 7.30257 13.8456L7.30257 15.7769L9.78493 13.2946C10.0388 13.0407 10.4503 13.0407 10.7042 13.2946C10.958 13.5484 10.958 13.96 10.7042 14.2138L8.22185 16.6961L10.1531 16.6961C10.5121 16.6961 10.8031 16.9872 10.8031 17.3461ZM6.65651 10.7992C6.29752 10.7992 6.00651 10.5082 6.00651 10.1492L6.00651 6.6487C6.00651 6.28971 6.29752 5.9987 6.65651 5.9987L10.157 5.9987C10.516 5.9987 10.807 6.28971 10.807 6.6487C10.807 7.00768 10.516 7.2987 10.157 7.2987L8.22571 7.2987L10.7081 9.78105C10.9619 10.0349 10.9619 10.4464 10.7081 10.7003C10.4542 10.9541 10.0427 10.9541 9.78885 10.7003L7.30651 8.21797L7.30651 10.1492C7.30651 10.5082 7.01549 10.7992 6.65651 10.7992ZM13.2034 6.6487C13.2034 6.28971 13.4945 5.9987 13.8534 5.9987L17.354 5.9987C17.7129 5.9987 18.004 6.28971 18.004 6.6487L18.004 10.1492C18.004 10.5082 17.7129 10.7992 17.354 10.7992C16.995 10.7992 16.704 10.5082 16.704 10.1492L16.704 8.2179L14.2216 10.7003C13.9678 10.9541 13.5562 10.9541 13.3024 10.7003C13.0485 10.4464 13.0485 10.0349 13.3024 9.78104L15.7847 7.2987L13.8534 7.2987C13.4945 7.2987 13.2034 7.00768 13.2034 6.6487ZM17.3539 13.1917C17.7129 13.1917 18.0039 13.4827 18.0039 13.8417L18.0039 17.3422C18.0039 17.7012 17.7129 17.9922 17.3539 17.9922L13.8534 17.9922C13.4944 17.9922 13.2034 17.7012 13.2034 17.3422C13.2034 16.9833 13.4944 16.6922 13.8534 16.6922L15.7847 16.6922L13.3024 14.2099C13.0485 13.956 13.0485 13.5445 13.3023 13.2906C13.5562 13.0368 13.9677 13.0368 14.2216 13.2906L16.7039 15.773L16.7039 13.8417C16.7039 13.4827 16.9949 13.1917 17.3539 13.1917Z"/></svg>

<svg xmlns="http://www.w3.org/2000/svg" fill="none" viewBox="0 0 24 24" focusable="false"><path fill="#74767B" fill-rule="evenodd" d="M4 7c0-1.66 1.34-3 3-3h10c1.65 0 3 1.34 3 3v10c0 1.65-1.35 3-3 3H7c-1.66 0-3-1.35-3-3zm6.8 10.34c0 .36-.29.65-.65.65h-3.5c-.36 0-.65-.29-.65-.65v-3.5c0-.36.29-.65.65-.65s.65.29.65.65v1.93l2.48-2.48c.25-.25.67-.25.92 0s.25.67 0 .92l-2.48 2.48h1.93c.36 0 .65.29.65.65m-4.15-6.55c-.36 0-.65-.29-.65-.65v-3.5c0-.36.29-.65.65-.65h3.5c.36 0 .65.29.65.65s-.29.65-.65.65H8.22l2.48 2.49c.26.25.26.66 0 .92-.25.25-.66.25-.92 0L7.3 8.21v1.93c0 .36-.29.65-.65.65m6.55-4.15c0-.36.29-.65.65-.65h3.5c.36 0 .65.29.65.65v3.5c0 .36-.29.65-.65.65s-.65-.29-.65-.65V8.21l-2.48 2.49c-.26.25-.67.25-.92 0a.64.64 0 0 1 0-.92l2.48-2.49h-1.93c-.36 0-.65-.29-.65-.65m4.15 6.55c.36 0 .65.29.65.65v3.5c0 .36-.29.65-.65.65h-3.5c-.36 0-.65-.29-.65-.65s.29-.65.65-.65h1.93L13.3 14.2a.63.63 0 0 1 0-.91.64.64 0 0 1 .92 0l2.48 2.48v-1.93c0-.36.29-.65.65-.65"/></svg>
